img/why-we/rocket.svg

<svg width="34" height="34" viewBox="0 0 34 34" fill="none" xmlns="http://www.w3.org/2000/svg">
<g clip-path="url(#clip0_384_360)">
<path d="M7.49374 28.6745C6.86182 29.9887 6.46234 30.8652 2.94348 30.9929C3.04411 27.5979 3.69213 27.2336 4.98717 26.5876C5.53055 26.3159 6.20776 25.9788 6.94031 25.4163L5.71469 23.8516C5.1361 24.2964 4.60379 24.5298 4.0896 24.7854C1.93119 25.8621 0.913874 26.9217 0.913874 31.975L0.93098 33.0034L1.92012 32.9813C7.25426 32.9813 8.25145 31.7758 9.25066 29.7009C9.46901 29.2461 9.59077 28.9382 9.96006 28.3254L8.46779 26.97C8.02102 27.5808 7.74128 28.1604 7.49374 28.6725V28.6745ZM23.0675 6.83288C20.8417 6.83288 19.0314 8.64313 19.0314 10.8679C19.0314 13.0928 20.8427 14.904 23.0675 14.904C25.2923 14.904 27.1035 13.0928 27.1035 10.8679C27.1035 8.64313 25.2923 6.83288 23.0675 6.83288ZM23.0675 12.8835C21.9566 12.8835 21.052 11.9788 21.052 10.869C21.052 9.75906 21.9556 8.85444 23.0675 8.85444C24.1794 8.85444 25.083 9.75906 25.083 10.869C25.083 11.9799 24.1794 12.8835 23.0675 12.8835ZM33.0927 1.82176C33.0626 1.31964 32.6641 0.91714 32.162 0.879909C32.162 0.879909 26.531 0.469359 21.1133 2.49293C19.134 3.23252 17.5049 4.40279 15.9845 6.17681C14.7166 7.656 13.4568 10.3286 12.3449 12.5484C11.9152 13.4047 11.5047 14.2248 11.1565 14.8507H5.55872C5.27094 14.8507 4.99724 14.9745 4.80605 15.1888L1.11714 19.1866C0.881674 19.4533 0.803187 19.8236 0.911862 20.1617C1.02054 20.4998 1.29927 20.7574 1.64542 20.8359L7.64971 22.2084C8.05926 22.7135 8.74049 23.4692 9.83126 24.6797L12.1064 27.2014L13.331 32.3816C13.4115 32.7227 13.6641 32.9984 13.9981 33.1061C14.0998 33.1383 14.2054 33.1554 14.3091 33.1554C14.5465 33.1554 14.779 33.0719 14.9641 32.9129L18.6923 29.2038C18.9147 29.0137 19.0435 28.7339 19.0435 28.4401V23.2478C19.5446 22.9369 20.4331 22.4569 21.2693 21.989C23.5475 20.7161 26.9496 19.1303 28.3593 17.8765C30.3457 16.1115 31.0682 14.8175 31.7786 12.9046C33.4671 8.35534 33.1098 2.0864 33.0927 1.82176ZM29.8929 12.2032C29.273 13.8726 28.7115 14.8708 27.023 16.3711C25.7763 17.479 22.3651 19.0699 20.2872 20.2321C18.7366 21.0985 17.8078 21.6046 17.4003 21.9377C17.1658 22.1279 17.03 22.4147 17.03 22.7165V27.9762L14.9068 30.3097L14.0022 26.486C13.9629 26.3219 13.8834 26.17 13.7697 26.0442C11.9192 23.9935 9.12387 20.8932 8.90954 20.6467C8.76967 20.4766 8.57546 20.3559 8.35711 20.3056L3.74747 19.251L6.00852 16.8612H11.7331C12.0832 16.8612 12.4083 16.679 12.5904 16.3822C13.0331 15.6617 13.5463 14.6353 14.142 13.449C15.1503 11.4385 16.4041 8.77797 17.511 7.48594C18.8191 5.96046 20.1463 5.00151 21.8157 4.37763C25.5298 2.99002 29.3616 2.84411 31.1134 2.85719C31.1456 4.71271 31.0762 9.01443 29.8919 12.2042L29.8929 12.2032Z" fill="#FBD8D5"/>
</g>
<defs>
<clipPath id="clip0_384_360">
<rect width="32.2" height="32.2" fill="white" transform="translate(0.899902 0.899902)"/>
</clipPath>
</defs>
</svg>

<svg width="34" height="34" fill="none" xmlns="http://www.w3.org/2000/svg"><g clip-path="url(#clip0_384_360)"><path d="M7.494 28.674c-.632 1.315-1.032 2.191-4.55 2.319.1-3.395.748-3.76 2.043-4.405.544-.272 1.22-.61 1.953-1.172l-1.225-1.564c-.579.444-1.111.678-1.625.933-2.16 1.077-3.176 2.137-3.176 7.19l.017 1.028.99-.022c5.333 0 6.33-1.205 7.33-3.28.218-.455.34-.763.71-1.376L8.467 26.97c-.447.61-.727 1.19-.974 1.703v.002zM23.067 6.833a4.04 4.04 0 00-4.036 4.035 4.042 4.042 0 004.037 4.036 4.041 4.041 0 004.035-4.036 4.04 4.04 0 00-4.036-4.035zm0 6.05a2.018 2.018 0 01-2.015-2.014c0-1.11.904-2.015 2.015-2.015 1.112 0 2.016.905 2.016 2.015s-.904 2.014-2.015 2.014zM33.093 1.822a1.006 1.006 0 00-.931-.942S26.531.47 21.113 2.493c-1.979.74-3.608 1.91-5.128 3.684-1.268 1.479-2.528 4.152-3.64 6.371-.43.857-.84 1.677-1.189 2.303H5.56a1.01 1.01 0 00-.753.338l-3.689 3.998a1.008 1.008 0 00.528 1.649l6.005 1.372c.41.506 1.09 1.261 2.181 2.472l2.275 2.521 1.225 5.18a1.003 1.003 0 001.633.532l3.728-3.71c.223-.19.352-.47.352-.763v-5.192c.5-.311 1.39-.791 2.225-1.259 2.279-1.273 5.68-2.859 7.09-4.113 1.987-1.765 2.71-3.059 3.42-4.971 1.688-4.55 1.33-10.819 1.314-11.083zm-3.2 10.381c-.62 1.67-1.181 2.668-2.87 4.168-1.247 1.108-4.658 2.699-6.736 3.861-1.55.867-2.48 1.373-2.887 1.706-.234.19-.37.477-.37.779v5.26l-2.123 2.333-.905-3.824a1.009 1.009 0 00-.232-.442c-1.85-2.05-4.646-5.15-4.86-5.397a1.01 1.01 0 00-.553-.341l-4.61-1.055 2.262-2.39h5.724c.35 0 .675-.182.857-.479.443-.72.956-1.747 1.552-2.933 1.008-2.01 2.262-4.671 3.369-5.963 1.308-1.526 2.635-2.484 4.305-3.108 3.714-1.388 7.546-1.534 9.297-1.52.033 1.855-.037 6.156-1.221 9.346z" fill="#FBD8D5"/></g><defs><clipPath id="clip0_384_360"><path fill="#fff" transform="translate(.9 .9)" d="M0 0h32.2v32.2H0z"/></clipPath></defs></svg>
